X: 22382
T: Lad O'Beirne's
R: reel
M: 4/4
K: Gmajor
|:DG G2 DGBG|BcBG AGEG|DGGF GABd|(3efg dg edge|
dB B2 GBdB|cE E2 GE D2|DEGA B2 eB|dBAc BG G2:|
|:Bdd^c d2 ef|g2 fg efge|dB B2 GBdB|cE E2 GE D2|
Bdd^c d2 ef|g2 fg efge|DEGA B2 eB|dBAc BG G2:|

